icons/camera-lens-fill.svg

<svg xmlns="http://www.w3.org/2000/svg" width="24" height="24" fill="none"><g clip-path="url(#a)"><g><path fill="#121212" d="M9.82747 21.763L14.3105 14L17.8425 20.117C16.1421 21.3443 14.0975 22.0033 12.0005 22C11.2545 22 10.5275 21.918 9.82747 21.763ZM7.89047 21.12C6.60568 20.5391 5.45782 19.6938 4.52183 18.6393C3.58584 17.5847 2.88276 16.3447 2.45847 15H11.4235L7.89047 21.119V21.12ZM2.05047 13C1.90737 11.5973 2.06361 10.1801 2.50888 8.84224C2.95415 7.50437 3.6783 6.27623 4.63347 5.23901L9.11247 13H2.05047ZM6.15947 3.88301C7.85959 2.65589 9.90376 1.9969 12.0005 2.00001C12.7465 2.00001 13.4735 2.08201 14.1735 2.23701L9.69047 10L6.15947 3.88301ZM16.1105 2.88001C17.3953 3.46089 18.5431 4.30619 19.4791 5.36073C20.4151 6.41527 21.1182 7.65535 21.5425 9.00001H12.5775L16.1105 2.88101V2.88001ZM21.9505 11C22.0936 12.4028 21.9373 13.8199 21.4921 15.1578C21.0468 16.4957 20.3226 17.7238 19.3675 18.761L14.8885 11H21.9525H21.9505Z"/></g></g><defs><clipPath id="a"><rect width="24" height="24" fill="white"/></clipPath></defs></svg>

<svg width="24" height="24" fill="none" xmlns="http://www.w3.org/2000/svg"><g clip-path="url(#a)"><path d="M9.827 21.763 14.31 14l3.533 6.117A9.955 9.955 0 0 1 12 22c-.746 0-1.473-.082-2.174-.237ZM7.89 21.12A10.029 10.029 0 0 1 2.458 15h8.966L7.89 21.119v.001ZM2.05 13a9.964 9.964 0 0 1 2.583-7.761L9.113 13H2.05Zm4.11-9.117A9.955 9.955 0 0 1 12 2c.746 0 1.473.082 2.174.237L9.69 10 6.16 3.883Zm9.95-1.003A10.028 10.028 0 0 1 21.543 9h-8.965l3.532-6.119V2.88ZM21.95 11a9.965 9.965 0 0 1-2.582 7.761L14.887 11h7.065-.002Z" /></g><defs><clipPath id="a"><path fill="#fff" d="M0 0h24v24H0z"/></clipPath></defs></svg>
